docs/static/images/users/jpmorgan.svg

<svg width="395" height="80" xmlns="http://www.w3.org/2000/svg">
  <path d="M40.048.053H16.743v1.885h7.555v38.385c0 11.641-3.147 14.785-10.387 14.785-4.408 0-5.354-3.459-5.354-5.033 0-4.089-.315-6.919-4.097-6.919-3.778 0-4.404 3.774-4.404 5.034 0 5.348 2.517 9.437 12.909 9.437 12.598 0 19.208-4.089 19.208-18.245V1.935h7.56V.053h.315zm3.151 48.763c-1.261 0-2.521.322-3.151 1.259-.946.944-1.261 1.889-1.261 3.148 0 1.252.315 2.2 1.261 3.149.945.94 1.89 1.251 3.151 1.251 1.257 0 2.202-.315 3.148-1.251.945-.945 1.26-1.897 1.26-3.149 0-1.259-.315-2.204-1.26-3.148-.946-.945-1.891-1.259-3.152-1.259zm51.644 0c-1.26 0-2.206.322-3.151 1.259-.942.944-1.257 1.889-1.257 3.148 0 1.252.315 2.2 1.257 3.149.945.94 1.891 1.251 3.151 1.251 1.26 0 2.517-.315 3.151-1.251.942-.949 1.257-1.897 1.257-3.149 0-1.259-.315-2.204-1.261-3.148-.945-.945-1.887-1.259-3.151-1.259zM78.463.053H55.789v1.885h6.614V45.99c0 3.459-.315 4.399-.63 5.344-.315 1.264-1.261 1.893-2.837 2.523-.941.315-2.517.626-4.723.626v1.889h24.565v-1.889c-2.206 0-3.777-.311-4.727-.626-1.571-.63-2.517-1.574-2.828-2.519a9.712 9.712 0 01-.634-3.459V32.77h5.983c17.636 0 22.675-6.919 22.675-16.36 0-9.753-2.832-16.361-20.784-16.361zM75.312 30.57h-4.723V2.253h4.097c13.539 0 16.686 5.664 16.686 14.471 0 9.123-5.349 13.846-16.06 13.846zm96.682 20.449a11.707 11.707 0 01-.631-3.774V1.938h5.98V.053h-14.477c-.315.63-17.317 42.788-17.317 42.788l-.315.319c-.315 0-.315 0-.315-.315 0 0-18.263-42.477-18.263-42.792h-16.072v1.89h6.929v47.821c0 .949-.315 1.893-.945 2.834-.63.944-1.576 1.574-2.521 1.885-.631.323-1.887.323-3.152.323v1.881h15.75v-1.89c-1.261 0-1.891-.314-2.833-.314-1.26-.315-1.891-.945-2.521-1.89-.63-.629-.946-1.574-.946-2.829l-.315-4.093V7.913h.946s20.468 47.821 20.784 48.451h1.575l19.523-48.133h.631v39.014c0 1.574-.315 2.83-.631 4.089-.315 1.259-1.256 1.889-2.517 2.519a12.365 12.365 0 01-4.093.626v1.889h22.044v-1.889a12.393 12.393 0 01-4.097-.626c-.941-.63-1.886-1.574-2.201-2.834zm29.914-35.864c-11.967 0-19.207 7.863-19.207 21.393 0 20.135 15.745 21.394 18.892 21.394 6.614 0 19.212-4.089 19.212-21.705 0-13.845-8.19-21.082-18.897-21.082zm-.315 40.268c-8.816 0-10.391-4.4-10.391-18.56 0-11.012.629-19.194 10.391-19.194 10.392 0 10.392 8.493 10.392 18.56 0 14.16-2.517 19.194-10.392 19.194zm50.076-39.639c-6.933 0-9.446 4.089-11.341 8.493h-.63s-.942-6.293-1.257-7.867h-13.858v2.204h7.555v27.687c0 2.829-.311 4.722-.937 5.974-.635 1.263-2.526 2.204-5.357 2.204h-1.261v2.519h23.304v-2.519h-1.26c-3.151 0-4.404-.626-5.042-1.886-.627-1.259-.942-3.148-.942-5.978v-15.1c0-4.723 3.778-10.383 8.19-10.383 4.723 0 4.404 6.919 9.761 4.089 2.522-1.574 1.891-9.437-6.925-9.437zm91.636 36.491c-2.522 0-3.148-1.252-3.463-3.77V26.481c0-3.778-.634-5.978-2.833-8.186-2.205-2.2-6.302-3.149-12.282-3.149-5.669 0-9.762.949-12.598 3.149-2.517 1.893-3.773 3.778-3.773 6.611 0 1.252.315 2.201.941 2.515.63.63 1.575.945 2.517.945 2.202 0 3.467-1.252 4.093-4.089.323-2.204.946-3.459 1.895-4.723 1.252-1.251 3.151-1.885 5.349-1.885 2.837 0 5.038.626 5.984 2.2.945 1.574 1.576 3.464 1.576 5.974v6.612c-7.248.63-24.881 2.2-23.935 15.416.315 5.033 4.727 9.752 10.706 9.752 6.615 0 10.703-3.77 13.536-6.608.319 2.834 3.151 6.297 7.878 6.297 5.35 0 8.501-2.519 8.82-9.126h-1.26c0 2.518-1.576 4.093-3.151 4.093zm-11.964-4.4v.315l-.315.315c-3.778 3.463-6.925 4.722-9.131 4.722-5.669 0-6.614-4.722-6.614-6.923 0-7.548 10.391-11.326 16.06-11.326v12.897zm59.203 4.089c-.63-1.255-1.575-3.148-1.575-5.974V27.736c0-2.515-.315-5.033-1.261-6.604-.945-1.889-2.517-3.148-4.093-4.093-1.891-.944-3.777-1.255-5.98-1.255-8.189 0-11.341 5.034-13.228 7.863h-.63l-1.576-7.237h-12.598v2.204h6.303v27.687c0 2.204-.319 3.774-.634 4.722-.319 1.252-1.252 2.2-2.202 2.515-.63.315-1.891.63-3.467.63v2.515h19.839v-2.515c-1.891-.315-3.467-.63-4.093-1.575-.631-.944-1.257-2.833-1.257-5.663V36.233c0-4.4 0-8.812 1.576-11.327 1.572-2.833 4.719-4.403 7.87-4.403 3.152 0 4.724.944 5.673 2.83.942 1.573 1.252 6.292 1.252 9.437v13.216c0 2.2.324 3.774 0 4.723-.31 1.251-.625 2.199-1.575 2.825-.626.634-1.891.634-3.148.945v2.519h19.216v-2.519c-2.21-.941-3.782-1.575-4.412-2.515zm-90.063-38.699c-1.261.315-1.891 1.575-2.521 3.148-.315 1.575-.946 2.515-1.891 2.826-.946.319-1.887.319-2.833-.311-2.201-1.889-5.983-4.088-12.912-4.088-11.338 0-16.061 7.863-16.061 15.096 0 8.497 3.151 12.59 10.388 14.16.319 0 .319.63 0 .63-5.98 1.26-11.648 3.149-11.648 8.812 0 3.463 1.89 5.349 4.727 6.608 2.828 1.255 6.921 1.889 11.963 1.889 4.404 0 7.556.315 9.447.315 1.898.245 3.722.888 5.353 1.889 1.261.945 1.891 2.519 1.891 4.4 0 2.834-1.576 4.723-4.408 6.612-2.828 1.574-6.303 2.204-11.022 2.204-3.778 0-7.24-.319-10.077-2.204-2.202-1.26-2.521-3.774-2.202-5.663.319-1.89-.319-3.775-2.521-4.404a3.168 3.168 0 00-3.463 1.574c-.634.937-.949 2.196-.949 3.77 0 4.719 3.781 6.919 6.614 7.863 4.408 1.256 7.248 1.574 11.022 1.574 5.357 0 9.447-.944 12.598-2.204 3.151-1.573 5.042-3.459 6.299-5.663 1.256-2.2 1.891-4.403 1.891-6.607 0-2.83-.635-5.349-1.891-6.919-4.093-5.349-9.766-4.723-22.36-5.349-5.983 0-7.244-1.259-7.244-3.148 0-2.83 2.206-3.774 11.022-5.349 8.816-1.259 17.002-4.718 17.002-15.101 0-3.148-.626-5.663-1.576-7.548 1.895.311 3.471.311 5.042 0 1.895-.63 2.833-1.574 3.467-2.519.63-1.259.942-2.519.315-3.463.315-2.515-1.26-3.459-3.462-2.83zm-19.838 29.576c-5.35 0-8.19-1.893-8.19-12.586 0-7.548 2.521-13.216 8.19-13.216 6.614 0 8.501 5.034 8.501 12.901 0 11.327-3.463 12.901-8.501 12.901z" fill="#54301a"/>
</svg>

<?xml version="1.0" encoding="UTF-8"?>
<svg width="395px" height="80px" viewBox="0 0 395 80" xmlns="http://www.w3.org/2000/svg" xmlns:xlink="http://www.w3.org/1999/xlink" version="1.1">
 <!-- Generated by Pixelmator Pro 1.4.1 -->
 <path id="path" d="M40.048 0.053 L16.743 0.053 16.743 1.938 24.298 1.938 24.298 40.323 C24.298 51.964 21.151 55.108 13.911 55.108 9.503 55.108 8.557 51.649 8.557 50.075 8.557 45.986 8.242 43.156 4.46 43.156 0.682 43.156 0.056 46.93 0.056 48.19 0.056 53.538 2.573 57.627 12.965 57.627 25.563 57.627 32.173 53.538 32.173 39.382 L32.173 1.935 39.733 1.935 39.733 0.053 40.048 0.053 Z M43.199 48.816 C41.938 48.816 40.678 49.138 40.048 50.075 39.102 51.019 38.787 51.964 38.787 53.223 38.787 54.475 39.102 55.423 40.048 56.372 40.993 57.312 41.938 57.623 43.199 57.623 44.456 57.623 45.401 57.308 46.347 56.372 47.292 55.427 47.607 54.475 47.607 53.223 47.607 51.964 47.292 51.019 46.347 50.075 45.401 49.13 44.456 48.816 43.195 48.816 Z M94.843 48.816 C93.583 48.816 92.637 49.138 91.692 50.075 90.75 51.019 90.435 51.964 90.435 53.223 90.435 54.475 90.75 55.423 91.692 56.372 92.637 57.312 93.583 57.623 94.843 57.623 96.103 57.623 97.36 57.308 97.994 56.372 98.936 55.423 99.251 54.475 99.251 53.223 99.251 51.964 98.936 51.019 97.99 50.075 97.045 49.13 96.103 48.816 94.839 48.816 Z M78.463 0.053 L55.789 0.053 55.789 1.938 62.403 1.938 62.403 45.99 C62.403 49.449 62.088 50.389 61.773 51.334 61.458 52.598 60.512 53.227 58.936 53.857 57.995 54.172 56.419 54.483 54.213 54.483 L54.213 56.372 78.778 56.372 78.778 54.483 C76.572 54.483 75.001 54.172 74.051 53.857 72.48 53.227 71.534 52.283 71.223 51.338 70.803 50.233 70.588 49.061 70.589 47.879 L70.589 32.77 76.572 32.77 C94.208 32.77 99.247 25.851 99.247 16.41 99.247 6.657 96.415 0.049 78.463 0.049 Z M75.312 30.57 L70.589 30.57 70.589 2.253 74.686 2.253 C88.225 2.253 91.372 7.917 91.372 16.724 91.372 25.847 86.023 30.57 75.312 30.57 Z M171.994 51.019 C171.578 49.804 171.365 48.529 171.363 47.245 L171.363 1.938 177.343 1.938 177.343 0.053 162.866 0.053 C162.551 0.683 145.549 42.841 145.549 42.841 L145.234 43.16 C144.919 43.16 144.919 43.16 144.919 42.845 144.919 42.845 126.656 0.368 126.656 0.053 L110.584 0.053 110.584 1.943 117.513 1.943 117.513 49.764 C117.513 50.713 117.198 51.657 116.568 52.598 115.938 53.542 114.992 54.172 114.047 54.483 113.416 54.806 112.16 54.806 110.895 54.806 L110.895 56.687 126.645 56.687 126.645 54.797 C125.384 54.797 124.754 54.483 123.812 54.483 122.552 54.168 121.921 53.538 121.291 52.593 120.661 51.964 120.345 51.019 120.345 49.764 L120.03 45.671 120.03 7.913 120.976 7.913 C120.976 7.913 141.444 55.734 141.76 56.364 L143.335 56.364 162.858 8.231 163.489 8.231 163.489 47.245 C163.489 48.819 163.174 50.075 162.858 51.334 162.543 52.593 161.602 53.223 160.341 53.853 159.022 54.29 157.638 54.502 156.248 54.479 L156.248 56.368 178.292 56.368 178.292 54.479 C176.901 54.502 175.516 54.29 174.195 53.853 173.254 53.223 172.309 52.279 171.994 51.019 Z M201.908 15.155 C189.941 15.155 182.701 23.018 182.701 36.548 182.701 56.683 198.446 57.942 201.593 57.942 208.207 57.942 220.805 53.853 220.805 36.237 220.805 22.392 212.615 15.155 201.908 15.155 Z M201.593 55.423 C192.777 55.423 191.202 51.023 191.202 36.863 191.202 25.851 191.831 17.669 201.593 17.669 211.985 17.669 211.985 26.162 211.985 36.229 211.985 50.389 209.468 55.423 201.593 55.423 Z M251.669 15.784 C244.736 15.784 242.223 19.873 240.328 24.277 L239.698 24.277 C239.698 24.277 238.756 17.984 238.441 16.41 L224.583 16.41 224.583 18.614 232.138 18.614 232.138 46.301 C232.138 49.13 231.827 51.023 231.201 52.275 230.566 53.538 228.675 54.479 225.844 54.479 L224.583 54.479 224.583 56.998 247.887 56.998 247.887 54.479 246.627 54.479 C243.476 54.479 242.223 53.853 241.585 52.593 240.958 51.334 240.643 49.445 240.643 46.615 L240.643 31.515 C240.643 26.792 244.421 21.132 248.833 21.132 253.556 21.132 253.237 28.051 258.594 25.221 261.116 23.647 260.485 15.784 251.669 15.784 Z M343.305 52.275 C340.783 52.275 340.157 51.023 339.842 48.505 L339.842 26.481 C339.842 22.703 339.208 20.503 337.009 18.295 334.804 16.095 330.707 15.146 324.727 15.146 319.058 15.146 314.965 16.095 312.129 18.295 309.612 20.188 308.356 22.073 308.356 24.906 308.356 26.158 308.671 27.107 309.297 27.421 309.927 28.051 310.872 28.366 311.814 28.366 314.016 28.366 315.281 27.114 315.907 24.277 316.23 22.073 316.853 20.818 317.802 19.554 319.054 18.303 320.953 17.669 323.151 17.669 325.988 17.669 328.189 18.295 329.135 19.869 330.08 21.443 330.711 23.333 330.711 25.843 L330.711 32.455 C323.463 33.085 305.83 34.655 306.776 47.871 307.091 52.904 311.503 57.623 317.482 57.623 324.097 57.623 328.185 53.853 331.018 51.015 331.337 53.849 334.169 57.312 338.896 57.312 344.246 57.312 347.397 54.793 347.716 48.186 L346.456 48.186 C346.456 50.704 344.88 52.279 343.305 52.279 Z M331.341 47.875 L331.341 48.19 331.026 48.505 C327.248 51.968 324.101 53.227 321.895 53.227 316.226 53.227 315.281 48.505 315.281 46.304 315.281 38.756 325.672 34.978 331.341 34.978 L331.341 47.875 Z M390.544 51.964 C389.914 50.709 388.969 48.816 388.969 45.99 L388.969 27.736 C388.969 25.221 388.654 22.703 387.708 21.132 386.763 19.243 385.191 17.984 383.615 17.039 381.724 16.095 379.838 15.784 377.635 15.784 369.446 15.784 366.294 20.818 364.407 23.647 L363.777 23.647 362.201 16.41 349.603 16.41 349.603 18.614 355.906 18.614 355.906 46.301 C355.906 48.505 355.587 50.075 355.272 51.023 354.953 52.275 354.02 53.223 353.07 53.538 352.44 53.853 351.179 54.168 349.603 54.168 L349.603 56.683 369.442 56.683 369.442 54.168 C367.551 53.853 365.975 53.538 365.349 52.593 364.718 51.649 364.092 49.76 364.092 46.93 L364.092 36.233 C364.092 31.833 364.092 27.421 365.668 24.906 367.24 22.073 370.387 20.503 373.538 20.503 376.69 20.503 378.262 21.447 379.211 23.333 380.153 24.906 380.463 29.625 380.463 32.77 L380.463 45.986 C380.463 48.186 380.787 49.76 380.463 50.709 380.153 51.96 379.838 52.908 378.888 53.534 378.262 54.168 376.997 54.168 375.74 54.479 L375.74 56.998 394.956 56.998 394.956 54.479 C392.746 53.538 391.174 52.904 390.544 51.964 Z M300.481 13.265 C299.22 13.58 298.59 14.84 297.96 16.413 297.645 17.988 297.014 18.928 296.069 19.239 295.123 19.558 294.182 19.558 293.236 18.928 291.035 17.039 287.253 14.84 280.324 14.84 268.986 14.84 264.263 22.703 264.263 29.936 264.263 38.433 267.414 42.526 274.651 44.096 274.97 44.096 274.97 44.726 274.651 44.726 268.671 45.986 263.003 47.875 263.003 53.538 263.003 57.001 264.893 58.887 267.73 60.146 270.558 61.401 274.651 62.035 279.693 62.035 284.097 62.035 287.249 62.35 289.14 62.35 291.038 62.595 292.862 63.238 294.493 64.239 295.754 65.184 296.384 66.758 296.384 68.639 296.384 71.473 294.808 73.362 291.976 75.251 289.148 76.825 285.673 77.455 280.954 77.455 277.176 77.455 273.714 77.136 270.877 75.251 268.675 73.991 268.356 71.477 268.675 69.588 268.994 67.698 268.356 65.813 266.154 65.184 264.778 64.88 263.367 65.522 262.691 66.758 262.057 67.695 261.742 68.954 261.742 70.528 261.742 75.247 265.523 77.447 268.356 78.391 272.764 79.647 275.604 79.965 279.378 79.965 284.735 79.965 288.825 79.021 291.976 77.761 295.127 76.188 297.018 74.302 298.275 72.098 299.531 69.898 300.166 67.695 300.166 65.491 300.166 62.661 299.531 60.142 298.275 58.572 294.182 53.223 288.509 53.849 275.915 53.223 269.932 53.223 268.671 51.964 268.671 50.075 268.671 47.245 270.877 46.301 279.693 44.726 288.509 43.467 296.695 40.008 296.695 29.625 296.695 26.477 296.069 23.962 295.119 22.077 297.014 22.388 298.59 22.388 300.161 22.077 302.056 21.447 302.994 20.503 303.628 19.558 304.258 18.299 304.57 17.039 303.943 16.095 304.258 13.58 302.683 12.636 300.481 13.265 Z M280.643 42.841 C275.293 42.841 272.453 40.948 272.453 30.255 272.453 22.707 274.974 17.039 280.643 17.039 287.257 17.039 289.144 22.073 289.144 29.94 289.144 41.267 285.681 42.841 280.643 42.841 Z" fill="#54301a" fill-opacity="1" stroke="none"/>
</svg>
